Sweet-Rainbow/icons/falkon.svg

<?xml version="1.0" encoding="UTF-8" standalone="no"?>
<!-- Generator: Gravit.io -->

<svg
   xmlns:dc="http://purl.org/dc/elements/1.1/"
   xmlns:cc="http://creativecommons.org/ns#"
   xmlns:rdf="http://www.w3.org/1999/02/22-rdf-syntax-ns#"
   xmlns:svg="http://www.w3.org/2000/svg"
   xmlns="http://www.w3.org/2000/svg"
   xmlns:sodipodi="http://sodipodi.sourceforge.net/DTD/sodipodi-0.dtd"
   xmlns:inkscape="http://www.inkscape.org/namespaces/inkscape"
   style="isolation:isolate"
   viewBox="0 0 36 36"
   width="48"
   height="48"
   version="1.1"
   id="svg37"
   sodipodi:docname="falkon.svg"
   inkscape:version="0.92.4 (5da689c313, 2019-01-14)">
  <metadata
     id="metadata43">
    <rdf:RDF>
      <cc:Work
         rdf:about="">
        <dc:format>image/svg+xml</dc:format>
        <dc:type
           rdf:resource="http://purl.org/dc/dcmitype/StillImage" />
        <dc:title></dc:title>
      </cc:Work>
    </rdf:RDF>
  </metadata>
  <defs
     id="defs41" />
  <sodipodi:namedview
     pagecolor="#ffffff"
     bordercolor="#666666"
     borderopacity="1"
     objecttolerance="10"
     gridtolerance="10"
     guidetolerance="10"
     inkscape:pageopacity="0"
     inkscape:pageshadow="2"
     inkscape:window-width="640"
     inkscape:window-height="480"
     id="namedview39"
     showgrid="false"
     inkscape:zoom="29.365243"
     inkscape:cx="25.325443"
     inkscape:cy="32"
     inkscape:current-layer="svg37"
     units="px" />
  <linearGradient
     id="_lgradient_80"
     x1="0.22078557"
     y1="0.047239967"
     x2="0.9022491"
     y2="0.90614605"
     gradientTransform="matrix(44.072,0,0,44,2,2)"
     gradientUnits="userSpaceOnUse">
    <stop
       offset="2.608695652173913%"
       stop-opacity="1"
       style="stop-color:rgb(237,184,212)"
       id="stop2" />
    <stop
       offset="98.69565217391305%"
       stop-opacity="1"
       style="stop-color:rgb(162,110,245)"
       id="stop4" />
  </linearGradient>
  <linearGradient
     id="_lgradient_81"
     x1="0.22078557"
     y1="0.047239967"
     x2="0.9022491"
     y2="0.90614605"
     gradientTransform="matrix(4.97,0,0,3.727,26.132,10.523)"
     gradientUnits="userSpaceOnUse">
    <stop
       offset="2.608695652173913%"
       stop-opacity="1"
       style="stop-color:rgb(237,184,212)"
       id="stop9" />
    <stop
       offset="98.69565217391305%"
       stop-opacity="1"
       style="stop-color:rgb(162,110,245)"
       id="stop11" />
  </linearGradient>
  <linearGradient
     id="_lgradient_82"
     x1="0"
     y1="0.5"
     x2="0.90748805"
     y2="0.92007786"
     gradientTransform="matrix(33.938,0,0,24.372,3.835,19.557)"
     gradientUnits="userSpaceOnUse">
    <stop
       offset="0%"
       stop-opacity="1"
       style="stop-color:rgb(247,241,7)"
       id="stop16" />
    <stop
       offset="83.88839793817618%"
       stop-opacity="1"
       style="stop-color:rgb(255,187,36)"
       id="stop18" />
  </linearGradient>
  <linearGradient
     id="_lgradient_83"
     x1="0"
     y1="0.5"
     x2="0.90748805"
     y2="0.92007786"
     gradientTransform="matrix(9.764,0,0,2.119,8.428,5.415)"
     gradientUnits="userSpaceOnUse">
    <stop
       offset="0%"
       stop-opacity="1"
       style="stop-color:rgb(247,241,7)"
       id="stop23" />
    <stop
       offset="83.88839793817618%"
       stop-opacity="1"
       style="stop-color:rgb(255,187,36)"
       id="stop25" />
  </linearGradient>
  <linearGradient
     id="_lgradient_84"
     x1="0"
     y1="0.5"
     x2="0.90748805"
     y2="0.92007786"
     gradientTransform="matrix(22.592,0,0,9.937,3.54,15.522)"
     gradientUnits="userSpaceOnUse">
    <stop
       offset="0%"
       stop-opacity="1"
       style="stop-color:rgb(247,241,7)"
       id="stop30" />
    <stop
       offset="83.88839793817618%"
       stop-opacity="1"
       style="stop-color:rgb(255,187,36)"
       id="stop32" />
  </linearGradient>
  <g
     id="g855"
     transform="matrix(0.81685031,0,0,0.81685031,-1.6337007,-1.6044074)">
    <path
       id="path7"
       d="M 2,35.08 V 35.04 C 2,35.03 2,35.03 2,35.02 2.01,33.24 2.23,31.47 2.64,29.73 2.89,28.66 3.2,27.59 3.55,26.54 3.17,26.51 2.82,26.34 2.57,26.06 2.31,25.78 2.17,25.41 2.17,25.04 2.12,24.85 2.1,24.66 2.1,24.46 2.09,24.43 2.1,24.4 2.1,24.37 V 24.23 C 2.11,24.2 2.11,24.18 2.11,24.16 2.28,22.33 2.6,20.53 3.05,18.75 3.54,16.73 4.26,14.77 5.18,12.91 5.65,11.98 6.2,11.09 6.82,10.25 7.43,9.42 8.14,8.67 8.94,8.02 9.22,7.79 9.52,7.57 9.83,7.37 7.44,7.13 5.05,7.04 2.65,7.11 6.02,4.9 9.77,3.35 13.71,2.53 15.43,2.18 17.17,2 18.92,2 c 0.01,0 0.01,0 0.01,0 h 0.08 c 2.14,0 4.27,0.32 6.33,0.94 1.72,0.53 3.36,1.28 4.9,2.21 1.25,0.77 2.42,1.64 3.51,2.61 0.76,0.67 1.48,1.38 2.18,2.12 0.15,0.16 0.29,0.31 0.44,0.46 1.21,0.28 2.39,0.71 3.49,1.27 1.11,0.57 2.13,1.29 3.03,2.14 0.83,0.78 1.53,1.68 2.09,2.68 0.81,1.47 1.19,3.14 1.07,4.82 -1.2,-0.1 -2.4,-0.14 -3.6,-0.14 -1.67,0 -3.33,0.09 -4.99,0.28 -0.89,0.24 -1.76,0.59 -2.58,1.02 -0.58,0.31 -1.1,0.7 -1.54,1.18 -0.33,0.35 -0.58,0.76 -0.75,1.21 -0.16,0.45 -0.25,0.92 -0.26,1.4 v 0.16 c 0.01,0.51 0.08,1.02 0.21,1.51 0.15,0.58 0.34,1.14 0.59,1.68 0.55,1.2 1.23,2.34 2.01,3.4 1.52,2.09 3.26,4.01 5.21,5.7 C 35.45,43.36 28.92,45.99 22.14,46 16.57,45.99 11.14,44.22 6.64,40.93 6.61,40.91 6.58,40.89 6.55,40.86 6.54,40.85 6.52,40.84 6.51,40.83 6.35,40.71 6.18,40.62 5.99,40.55 5.8,40.48 5.6,40.43 5.39,40.38 4.97,40.3 4.55,40.17 4.15,40 3.43,39.67 2.81,39.14 2.37,38.47 2.35,37.99 2.29,37.51 2.22,37.04 2.17,36.68 2.12,36.33 2.08,35.97 2.04,35.7 2.01,35.42 2,35.14 2,35.12 2,35.1 2,35.08 Z m 7.51,4.18 C 9.64,38.94 9.65,38.58 9.53,38.24 9.42,37.91 9.2,37.63 8.9,37.44 8.6,37.26 8.24,37.19 7.9,37.24 7.55,37.29 7.23,37.46 7,37.72 c -0.01,0 -0.02,0 -0.03,-0.01 0.58,-0.92 1.2,-1.8 1.87,-2.66 0.53,0.55 0.88,1.25 1.01,2 0.12,0.76 0,1.53 -0.33,2.22 0,0 -0.01,0 -0.01,-0.01 z M 6.97,37.71 C 6.65,37.6 6.31,37.51 5.98,37.44 5.77,37.4 5.57,37.34 5.38,37.27 5.34,37.25 5.31,37.23 5.27,37.2 5.25,37 5.22,36.8 5.19,36.6 5.14,36.25 5.09,35.91 5.05,35.56 5.02,35.39 5.01,35.22 5,35.05 v -0.01 c 0.01,-1.55 0.2,-3.1 0.56,-4.62 0.46,-1.94 1.09,-3.84 1.89,-5.67 0.17,-0.31 0.32,-0.63 0.47,-0.96 0.03,-0.07 0.06,-0.15 0.1,-0.22 0.28,-0.24 0.54,-0.49 0.8,-0.74 0.4,-0.4 0.79,-0.8 1.18,-1.21 l 0.34,-0.35 c 0.47,-0.48 0.55,-1.22 0.21,-1.8 C 10.22,18.89 9.53,18.6 8.88,18.78 8.45,18.89 8.02,19.02 7.6,19.17 7.26,19.3 6.95,19.48 6.67,19.7 c -0.26,0.2 -0.51,0.42 -0.75,0.65 -0.07,0.07 -0.14,0.13 -0.21,0.2 0.07,-0.36 0.16,-0.72 0.25,-1.08 0.44,-1.8 1.08,-3.56 1.9,-5.22 0.39,-0.78 0.85,-1.52 1.37,-2.21 0.46,-0.63 1.01,-1.2 1.61,-1.7 0.56,-0.46 1.18,-0.82 1.85,-1.07 0.69,-0.26 1.42,-0.39 2.16,-0.39 0.76,0 1.52,0.12 2.25,0.35 C 17.6,8.88 17.9,8.31 17.91,7.7 17.93,7.09 17.66,6.51 17.18,6.13 16.97,5.95 16.74,5.81 16.49,5.69 16.13,5.53 15.77,5.39 15.4,5.28 16.56,5.1 17.74,5 18.93,5 h 0.08 c 0,0 0,0 0,0 1.84,0 3.68,0.28 5.45,0.81 1.48,0.46 2.89,1.1 4.22,1.9 1.09,0.67 2.12,1.43 3.07,2.28 0.69,0.62 1.36,1.27 2,1.95 0.17,0.19 0.36,0.37 0.54,0.56 0.26,0.28 0.58,0.5 0.93,0.66 1.14,0.22 2.24,0.6 3.28,1.12 0.85,0.44 1.64,1 2.33,1.65 0.61,0.57 1.12,1.23 1.52,1.95 0.04,0.08 0.08,0.15 0.12,0.23 -0.01,0 -0.01,0 -0.02,0 -1.85,0 -3.7,0.11 -5.54,0.33 -1.2,0.3 -2.35,0.74 -3.44,1.32 -0.87,0.46 -1.66,1.07 -2.33,1.79 -0.6,0.64 -1.06,1.4 -1.37,2.22 -0.27,0.76 -0.42,1.56 -0.44,2.37 0,0 0,0.01 0,0.01 v 0.18 c 0,0.01 0,0.02 0,0.04 0.01,0.76 0.11,1.52 0.3,2.26 0.2,0.74 0.45,1.47 0.77,2.17 0.64,1.38 1.42,2.7 2.32,3.93 0.96,1.32 2.02,2.59 3.15,3.78 -3.99,2.91 -8.8,4.48 -13.73,4.49 -4.48,-0.01 -8.86,-1.3 -12.62,-3.73"
       style="fill:url(#_lgradient_80);fill-rule:evenodd"
       inkscape:connector-curvature="0" />
    <path
       id="path14"
       d="m 26.132,10.802 c 0,0 4.397,-1.728 4.97,3.412 -4.336,0.449 -4.97,-3.412 -4.97,-3.412 z"
       style="fill:url(#_lgradient_81);fill-rule:evenodd"
       inkscape:connector-curvature="0" />
    <path
       id="path21"
       d="m 5.86,43.929 c 0,0 8.247,-23.297 31.913,-24.19 0,0 -20.372,-3.298 -33.936,18.187 -0.075,3.04 2.023,6.003 2.023,6.003 z"
       style="fill:url(#_lgradient_82);fill-rule:evenodd"
       inkscape:connector-curvature="0" />
    <path
       id="path28"
       d="m 8.428,5.741 c 0,0 5.903,0.343 8.011,1.793 C 17.318,7.353 18.066,6.75 18.193,5.93 17.438,5.617 10.526,5.054 8.428,5.741 Z"
       style="fill:url(#_lgradient_83);fill-rule:evenodd"
       inkscape:connector-curvature="0" />
    <path
       id="path35"
       d="m 3.573,25.459 c 0,0 7.64,-8.876 22.559,-9.937 0,0 -20.559,0.918 -22.264,6.653 -0.474,1.379 -0.295,3.284 -0.295,3.284 z"
       style="fill:url(#_lgradient_84);fill-rule:evenodd"
       inkscape:connector-curvature="0" />
  </g>
</svg>

<?xml version="1.0" encoding="UTF-8" standalone="no"?><!-- Generator: Gravit.io --><svg xmlns="http://www.w3.org/2000/svg" xmlns:xlink="http://www.w3.org/1999/xlink" style="isolation:isolate" viewBox="0 0 48 48" width="48pt" height="48pt"><linearGradient id="_lgradient_80" x1="0.22078557924020603" y1="0.04723996636961164" x2="0.9022490870014594" y2="0.9061460265379022" gradientTransform="matrix(44.072,0,0,44,2,2)" gradientUnits="userSpaceOnUse"><stop offset="2.608695652173913%" stop-opacity="1" style="stop-color:rgb(237,184,212)"/><stop offset="98.69565217391305%" stop-opacity="1" style="stop-color:rgb(162,110,245)"/></linearGradient><path d=" M 2 35.08 L 2 35.04 C 2 35.03 2 35.03 2 35.02 C 2.01 33.24 2.23 31.47 2.64 29.73 C 2.89 28.66 3.2 27.59 3.55 26.54 C 3.17 26.51 2.82 26.34 2.57 26.06 C 2.31 25.78 2.17 25.41 2.17 25.04 C 2.12 24.85 2.1 24.66 2.1 24.46 C 2.09 24.43 2.1 24.4 2.1 24.37 L 2.1 24.23 C 2.11 24.2 2.11 24.18 2.11 24.16 C 2.28 22.33 2.6 20.53 3.05 18.75 C 3.54 16.73 4.26 14.77 5.18 12.91 C 5.65 11.98 6.2 11.09 6.82 10.25 C 7.43 9.42 8.14 8.67 8.94 8.02 C 9.22 7.79 9.52 7.57 9.83 7.37 C 7.44 7.13 5.05 7.04 2.65 7.11 C 6.02 4.9 9.77 3.35 13.71 2.53 C 15.43 2.18 17.17 2 18.92 2 C 18.93 2 18.93 2 18.93 2 L 19.01 2 C 21.15 2 23.28 2.32 25.34 2.94 C 27.06 3.47 28.7 4.22 30.24 5.15 C 31.49 5.92 32.66 6.79 33.75 7.76 C 34.51 8.43 35.23 9.14 35.93 9.88 C 36.08 10.04 36.22 10.19 36.37 10.34 C 37.58 10.62 38.76 11.05 39.86 11.61 C 40.97 12.18 41.99 12.9 42.89 13.75 C 43.72 14.53 44.42 15.43 44.98 16.43 C 45.79 17.9 46.17 19.57 46.05 21.25 C 44.85 21.15 43.65 21.11 42.45 21.11 C 40.78 21.11 39.12 21.2 37.46 21.39 C 36.57 21.63 35.7 21.98 34.88 22.41 C 34.3 22.72 33.78 23.11 33.34 23.59 C 33.01 23.94 32.76 24.35 32.59 24.8 C 32.43 25.25 32.34 25.72 32.33 26.2 L 32.33 26.36 C 32.34 26.87 32.41 27.38 32.54 27.87 C 32.69 28.45 32.88 29.01 33.13 29.55 C 33.68 30.75 34.36 31.89 35.14 32.95 C 36.66 35.04 38.4 36.96 40.35 38.65 C 35.45 43.36 28.92 45.99 22.14 46 C 16.57 45.99 11.14 44.22 6.64 40.93 C 6.61 40.91 6.58 40.89 6.55 40.86 C 6.54 40.85 6.52 40.84 6.51 40.83 C 6.35 40.71 6.18 40.62 5.99 40.55 C 5.8 40.48 5.6 40.43 5.39 40.38 C 4.97 40.3 4.55 40.17 4.15 40 C 3.43 39.67 2.81 39.14 2.37 38.47 C 2.35 37.99 2.29 37.51 2.22 37.04 C 2.17 36.68 2.12 36.33 2.08 35.97 C 2.04 35.7 2.01 35.42 2 35.14 C 2 35.12 2 35.1 2 35.08 Z  M 9.51 39.26 C 9.64 38.94 9.65 38.58 9.53 38.24 C 9.42 37.91 9.2 37.63 8.9 37.44 C 8.6 37.26 8.24 37.19 7.9 37.24 C 7.55 37.29 7.23 37.46 7 37.72 C 6.99 37.72 6.98 37.72 6.97 37.71 C 7.55 36.79 8.17 35.91 8.84 35.05 C 9.37 35.6 9.72 36.3 9.85 37.05 C 9.97 37.81 9.85 38.58 9.52 39.27 C 9.52 39.27 9.51 39.27 9.51 39.26 Z  M 6.97 37.71 C 6.65 37.6 6.31 37.51 5.98 37.44 C 5.77 37.4 5.57 37.34 5.38 37.27 C 5.34 37.25 5.31 37.23 5.27 37.2 C 5.25 37 5.22 36.8 5.19 36.6 C 5.14 36.25 5.09 35.91 5.05 35.56 C 5.02 35.39 5.01 35.22 5 35.05 L 5 35.04 C 5.01 33.49 5.2 31.94 5.56 30.42 C 6.02 28.48 6.65 26.58 7.45 24.75 C 7.62 24.44 7.77 24.12 7.92 23.79 C 7.95 23.72 7.98 23.64 8.02 23.57 C 8.3 23.33 8.56 23.08 8.82 22.83 C 9.22 22.43 9.61 22.03 10 21.62 L 10.34 21.27 C 10.81 20.79 10.89 20.05 10.55 19.47 C 10.22 18.89 9.53 18.6 8.88 18.78 C 8.45 18.89 8.02 19.02 7.6 19.17 C 7.26 19.3 6.95 19.48 6.67 19.7 C 6.41 19.9 6.16 20.12 5.92 20.35 C 5.85 20.42 5.78 20.48 5.71 20.55 C 5.78 20.19 5.87 19.83 5.96 19.47 C 6.4 17.67 7.04 15.91 7.86 14.25 C 8.25 13.47 8.71 12.73 9.23 12.04 C 9.69 11.41 10.24 10.84 10.84 10.34 C 11.4 9.88 12.02 9.52 12.69 9.27 C 13.38 9.01 14.11 8.88 14.85 8.88 C 15.61 8.88 16.37 9 17.1 9.23 C 17.6 8.88 17.9 8.31 17.91 7.7 C 17.93 7.09 17.66 6.51 17.18 6.13 C 16.97 5.95 16.74 5.81 16.49 5.69 C 16.13 5.53 15.77 5.39 15.4 5.28 C 16.56 5.1 17.74 5 18.93 5 L 19.01 5 C 19.01 5 19.01 5 19.01 5 C 20.85 5 22.69 5.28 24.46 5.81 C 25.94 6.27 27.35 6.91 28.68 7.71 C 29.77 8.38 30.8 9.14 31.75 9.99 C 32.44 10.61 33.11 11.26 33.75 11.94 C 33.92 12.13 34.11 12.31 34.29 12.5 C 34.55 12.78 34.87 13 35.22 13.16 C 36.36 13.38 37.46 13.76 38.5 14.28 C 39.35 14.72 40.14 15.28 40.83 15.93 C 41.44 16.5 41.95 17.16 42.35 17.88 C 42.39 17.96 42.43 18.03 42.47 18.11 C 42.46 18.11 42.46 18.11 42.45 18.11 C 40.6 18.11 38.75 18.22 36.91 18.44 C 35.71 18.74 34.56 19.18 33.47 19.76 C 32.6 20.22 31.81 20.83 31.14 21.55 C 30.54 22.19 30.08 22.95 29.77 23.77 C 29.5 24.53 29.35 25.33 29.33 26.14 C 29.33 26.14 29.33 26.15 29.33 26.15 L 29.33 26.33 C 29.33 26.34 29.33 26.35 29.33 26.37 C 29.34 27.13 29.44 27.89 29.63 28.63 C 29.83 29.37 30.08 30.1 30.4 30.8 C 31.04 32.18 31.82 33.5 32.72 34.73 C 33.68 36.05 34.74 37.32 35.87 38.51 C 31.88 41.42 27.07 42.99 22.14 43 C 17.66 42.99 13.28 41.7 9.52 39.27" fill-rule="evenodd" fill="url(#_lgradient_80)"/><linearGradient id="_lgradient_81" x1="0.22078557924020603" y1="0.04723996636961164" x2="0.9022490870014594" y2="0.9061460265379022" gradientTransform="matrix(4.97,0,0,3.727,26.132,10.523)" gradientUnits="userSpaceOnUse"><stop offset="2.608695652173913%" stop-opacity="1" style="stop-color:rgb(237,184,212)"/><stop offset="98.69565217391305%" stop-opacity="1" style="stop-color:rgb(162,110,245)"/></linearGradient><path d=" M 26.132 10.802 C 26.132 10.802 30.529 9.074 31.102 14.214 C 26.766 14.663 26.132 10.802 26.132 10.802 Z " fill-rule="evenodd" fill="url(#_lgradient_81)"/><linearGradient id="_lgradient_82" x1="0" y1="0.5" x2="0.9074880558539661" y2="0.9200778838291643" gradientTransform="matrix(33.938,0,0,24.372,3.835,19.557)" gradientUnits="userSpaceOnUse"><stop offset="0%" stop-opacity="1" style="stop-color:rgb(247,241,7)"/><stop offset="83.88839793817618%" stop-opacity="1" style="stop-color:rgb(255,187,36)"/></linearGradient><path d=" M 5.86 43.929 C 5.86 43.929 14.107 20.632 37.773 19.739 C 37.773 19.739 17.401 16.441 3.837 37.926 C 3.762 40.966 5.86 43.929 5.86 43.929 Z " fill-rule="evenodd" fill="url(#_lgradient_82)"/><linearGradient id="_lgradient_83" x1="0" y1="0.5" x2="0.9074880558539661" y2="0.9200778838291643" gradientTransform="matrix(9.764,0,0,2.119,8.428,5.415)" gradientUnits="userSpaceOnUse"><stop offset="0%" stop-opacity="1" style="stop-color:rgb(247,241,7)"/><stop offset="83.88839793817618%" stop-opacity="1" style="stop-color:rgb(255,187,36)"/></linearGradient><path d=" M 8.428 5.741 C 8.428 5.741 14.331 6.084 16.439 7.534 C 17.318 7.353 18.066 6.75 18.193 5.93 C 17.438 5.617 10.526 5.054 8.428 5.741 Z " fill-rule="evenodd" fill="url(#_lgradient_83)"/><linearGradient id="_lgradient_84" x1="0" y1="0.5" x2="0.9074880558539661" y2="0.9200778838291643" gradientTransform="matrix(22.592,0,0,9.937,3.54,15.522)" gradientUnits="userSpaceOnUse"><stop offset="0%" stop-opacity="1" style="stop-color:rgb(247,241,7)"/><stop offset="83.88839793817618%" stop-opacity="1" style="stop-color:rgb(255,187,36)"/></linearGradient><path d=" M 3.573 25.459 C 3.573 25.459 11.213 16.583 26.132 15.522 C 26.132 15.522 5.573 16.44 3.868 22.175 C 3.394 23.554 3.573 25.459 3.573 25.459 Z " fill-rule="evenodd" fill="url(#_lgradient_84)"/></svg>
